build/svg/cmd/32/romanliststyle.svg

<svg xmlns="http://www.w3.org/2000/svg" viewBox="0 0 32 32"><rect y="3" x="6" height="7" width="5" ry="1" opacity=".6"/><path fill="#fff" d="M8 5h1v3H8z"/><rect width="7" height="7" x="4" y="12" ry="1" opacity=".6"/><path d="M5 13v1h1v3H5v1h5v-1H9v-3h1v-1H5zm2 1h1v3H7v-3z" fill="#fff"/><rect y="21" x="2" height="7" width="9" ry="1" opacity=".6"/><path d="M3 22v1h1v3H3v1h7v-1H9v-3h1v-1H3zm2 1h1v3H5v-3zm2 0h1v3H7v-3z" fill="#fff"/><path fill="#924d8b" d="M29 16H13v2h16zM29 13H13v2h16zM29 7H13v2h16zM29 4H13v2h16zM29 25H13v2h16zM29 22H13v2h16z"/><rect width="3" height="1" x="7" y="4" ry="0" fill="#fff"/><path fill="#fff" d="M7 8h3v1H7z"/></svg>

<?xml version="1.0" encoding="UTF-8" standalone="no"?>
<svg
   xmlns:dc="http://purl.org/dc/elements/1.1/"
   xmlns:cc="http://creativecommons.org/ns#"
   xmlns:rdf="http://www.w3.org/1999/02/22-rdf-syntax-ns#"
   xmlns:svg="http://www.w3.org/2000/svg"
   xmlns="http://www.w3.org/2000/svg"
   xmlns:sodipodi="http://sodipodi.sourceforge.net/DTD/sodipodi-0.dtd"
   xmlns:inkscape="http://www.inkscape.org/namespaces/inkscape"
   viewBox="0 0 32 32"
   version="1.1"
   id="svg6"
   sodipodi:docname="romanliststyle.svg"
   inkscape:version="0.92.5 (2060ec1f9f, 2020-04-08)"
   inkscape:export-filename="/home/jupiter007/Libreoffice yaru theme fullcolor/build/cmd/32/romanliststyle.png"
   inkscape:export-xdpi="96"
   inkscape:export-ydpi="96">
  <metadata
     id="metadata12">
    <rdf:RDF>
      <cc:Work
         rdf:about="">
        <dc:format>image/svg+xml</dc:format>
        <dc:type
           rdf:resource="http://purl.org/dc/dcmitype/StillImage" />
      </cc:Work>
    </rdf:RDF>
  </metadata>
  <defs
     id="defs10" />
  <sodipodi:namedview
     pagecolor="#ffffff"
     bordercolor="#666666"
     borderopacity="1"
     objecttolerance="10"
     gridtolerance="10"
     guidetolerance="10"
     inkscape:pageopacity="0"
     inkscape:pageshadow="2"
     inkscape:window-width="1920"
     inkscape:window-height="1011"
     id="namedview8"
     showgrid="true"
     inkscape:zoom="20.85965"
     inkscape:cx="4.2889063"
     inkscape:cy="17.343432"
     inkscape:window-x="0"
     inkscape:window-y="32"
     inkscape:window-maximized="1"
     inkscape:current-layer="svg6">
    <inkscape:grid
       type="xygrid"
       id="grid822" />
  </sodipodi:namedview>
  <rect
     inkscape:export-ydpi="96"
     inkscape:export-xdpi="96"
     inkscape:export-filename="/home/jupiter007/Libreoffice yaru theme fullcolor/build/cmd/rect7303.png"
     y="3"
     x="6"
     height="7"
     width="5"
     id="rect830"
     style="opacity:0.6;vector-effect:none;fill:#000000;fill-opacity:1;stroke:none;stroke-width:2.15384626;stroke-linecap:round;stroke-linejoin:round;stroke-miterlimit:4;stroke-dasharray:none;stroke-dashoffset:0;stroke-opacity:1"
     ry="1" />
  <rect
     inkscape:export-ydpi="96"
     inkscape:export-xdpi="96"
     inkscape:export-filename="/home/jupiter007/Libreoffice yaru theme fullcolor/build/cmd/rect7303.png"
     y="5"
     x="8"
     height="3"
     width="1"
     id="rect832"
     style="opacity:1;vector-effect:none;fill:#ffffff;fill-opacity:1;stroke:none;stroke-width:2.15384626;stroke-linecap:round;stroke-linejoin:round;stroke-miterlimit:4;stroke-dasharray:none;stroke-dashoffset:0;stroke-opacity:1" />
  <rect
     style="opacity:0.6;vector-effect:none;fill:#000000;fill-opacity:1;stroke:none;stroke-width:2.15384626;stroke-linecap:round;stroke-linejoin:round;stroke-miterlimit:4;stroke-dasharray:none;stroke-dashoffset:0;stroke-opacity:1"
     id="rect834"
     width="7"
     height="7"
     x="4"
     y="12"
     inkscape:export-filename="/home/jupiter007/Libreoffice yaru theme fullcolor/build/cmd/rect7303.png"
     inkscape:export-xdpi="96"
     inkscape:export-ydpi="96"
     ry="1" />
  <path
     style="opacity:1;vector-effect:none;fill:#ffffff;fill-opacity:1;stroke:none;stroke-width:2.15384626;stroke-linecap:round;stroke-linejoin:round;stroke-miterlimit:4;stroke-dasharray:none;stroke-dashoffset:0;stroke-opacity:1"
     d="M 5 13 L 5 14 L 6 14 L 6 17 L 5 17 L 5 18 L 10 18 L 10 17 L 9 17 L 9 14 L 10 14 L 10 13 L 5 13 z M 7 14 L 8 14 L 8 17 L 7 17 L 7 14 z "
     id="rect836" />
  <rect
     inkscape:export-ydpi="96"
     inkscape:export-xdpi="96"
     inkscape:export-filename="/home/jupiter007/Libreoffice yaru theme fullcolor/build/cmd/rect7303.png"
     y="21"
     x="2"
     height="7"
     width="9"
     id="rect838"
     style="opacity:0.6;vector-effect:none;fill:#000000;fill-opacity:1;stroke:none;stroke-width:2.15384626;stroke-linecap:round;stroke-linejoin:round;stroke-miterlimit:4;stroke-dasharray:none;stroke-dashoffset:0;stroke-opacity:1"
     ry="1" />
  <path
     style="opacity:1;vector-effect:none;fill:#ffffff;fill-opacity:1;stroke:none;stroke-width:2.15384626;stroke-linecap:round;stroke-linejoin:round;stroke-miterlimit:4;stroke-dasharray:none;stroke-dashoffset:0;stroke-opacity:1"
     d="M 3 22 L 3 23 L 4 23 L 4 26 L 3 26 L 3 27 L 10 27 L 10 26 L 9 26 L 9 23 L 10 23 L 10 22 L 3 22 z M 5 23 L 6 23 L 6 26 L 5 26 L 5 23 z M 7 23 L 8 23 L 8 26 L 7 26 L 7 23 z "
     id="rect840" />
  <rect
     inkscape:export-ydpi="96"
     inkscape:export-xdpi="96"
     inkscape:export-filename="/home/jupiter007/Libreoffice yaru theme fullcolor/build/cmd/rect7303.png"
     y="16"
     x="-29"
     height="2"
     width="16"
     id="rect824"
     style="opacity:1;vector-effect:none;fill:#924d8b;fill-opacity:1;stroke:none;stroke-width:3.04599905;stroke-linecap:round;stroke-linejoin:round;stroke-miterlimit:4;stroke-dasharray:none;stroke-dashoffset:0;stroke-opacity:1"
     transform="scale(-1,1)" />
  <rect
     style="opacity:1;vector-effect:none;fill:#924d8b;fill-opacity:1;stroke:none;stroke-width:3.04599905;stroke-linecap:round;stroke-linejoin:round;stroke-miterlimit:4;stroke-dasharray:none;stroke-dashoffset:0;stroke-opacity:1"
     id="rect837"
     width="16"
     height="2"
     x="-29"
     y="13"
     inkscape:export-filename="/home/jupiter007/Libreoffice yaru theme fullcolor/build/cmd/rect7303.png"
     inkscape:export-xdpi="96"
     inkscape:export-ydpi="96"
     transform="scale(-1,1)" />
  <rect
     style="opacity:1;vector-effect:none;fill:#924d8b;fill-opacity:1;stroke:none;stroke-width:3.04599905;stroke-linecap:round;stroke-linejoin:round;stroke-miterlimit:4;stroke-dasharray:none;stroke-dashoffset:0;stroke-opacity:1"
     id="rect839"
     width="16"
     height="2"
     x="-29"
     y="7"
     inkscape:export-filename="/home/jupiter007/Libreoffice yaru theme fullcolor/build/cmd/rect7303.png"
     inkscape:export-xdpi="96"
     inkscape:export-ydpi="96"
     transform="scale(-1,1)" />
  <rect
     inkscape:export-ydpi="96"
     inkscape:export-xdpi="96"
     inkscape:export-filename="/home/jupiter007/Libreoffice yaru theme fullcolor/build/cmd/rect7303.png"
     y="4"
     x="-29"
     height="2"
     width="16"
     id="rect841"
     style="opacity:1;vector-effect:none;fill:#924d8b;fill-opacity:1;stroke:none;stroke-width:3.04599905;stroke-linecap:round;stroke-linejoin:round;stroke-miterlimit:4;stroke-dasharray:none;stroke-dashoffset:0;stroke-opacity:1"
     transform="scale(-1,1)" />
  <rect
     inkscape:export-ydpi="96"
     inkscape:export-xdpi="96"
     inkscape:export-filename="/home/jupiter007/Libreoffice yaru theme fullcolor/build/cmd/rect7303.png"
     y="25"
     x="-29"
     height="2"
     width="16"
     id="rect843"
     style="opacity:1;vector-effect:none;fill:#924d8b;fill-opacity:1;stroke:none;stroke-width:3.04599905;stroke-linecap:round;stroke-linejoin:round;stroke-miterlimit:4;stroke-dasharray:none;stroke-dashoffset:0;stroke-opacity:1"
     transform="scale(-1,1)" />
  <rect
     style="opacity:1;vector-effect:none;fill:#924d8b;fill-opacity:1;stroke:none;stroke-width:3.04599905;stroke-linecap:round;stroke-linejoin:round;stroke-miterlimit:4;stroke-dasharray:none;stroke-dashoffset:0;stroke-opacity:1"
     id="rect845"
     width="16"
     height="2"
     x="-29"
     y="22"
     inkscape:export-filename="/home/jupiter007/Libreoffice yaru theme fullcolor/build/cmd/rect7303.png"
     inkscape:export-xdpi="96"
     inkscape:export-ydpi="96"
     transform="scale(-1,1)" />
  <rect
     style="opacity:1;fill:#ffffff;fill-opacity:1;stroke:none;stroke-width:2;stroke-linejoin:round;stroke-miterlimit:4;stroke-dasharray:none"
     id="rect848"
     width="3"
     height="1"
     x="7"
     y="4"
     ry="0" />
  <rect
     style="opacity:1;fill:#ffffff;fill-opacity:1;stroke:none;stroke-width:2;stroke-linejoin:round;stroke-miterlimit:4;stroke-dasharray:none"
     id="rect850"
     width="3"
     height="1"
     x="7"
     y="8" />
</svg>
